X: 3434
T: Caroline och Eriks bröllopsvals 
R: vals
C: Magnus Samuelsson 
C: Arr. K. Pettersson, 2007 
Z: .andersson 
M: 3/4
L: 1/4
K: D 

V: 1
A |: d>ef | d2A | B>c ((3d/c/B/) | A2A | (E/D/) E/F/ G/A/ | B>cB | A3 | A2A :| 
g>(fe/d/) | B2B | g>(fe/g/) | fd/c/B | (G/F/) (G/A/) B/c/ | d>c ((3B/c/d/) | e3 | e2e | 
g>(fe/d/) | B2B | g>(fe/g/) | fd/c/B | (G/F/) (G/A/) B/c/ | d>cB | A2E/F/ | GFE | D3 |] 

V: 2 
z |: F>GA | F2F | G>AB | F2D | (C/B,/) C/D/ E/F/ | G>AG | E3 | E2E :| 
e>(dc/B/) | D2D | e>(dc/e/) | dB/A/F | (E/D/) (E/F/) G/A/ | B>A ((3G/A/B/) | c3 | A2A | 
e>(dc/B/) | D2D | e>(dc/e/) | dB/A/F | (E/D/) (E/F/) G/A/ | B>AG | E3 | EDC | D3 |]

V: 3
K: bass
z |: D,,3 | D,,E,,F,, | G,,3 | D,,3 | G,,3 | G,,F,,G,, | A,,3 | A,,3 :| 
E,,3 | G,,3 | E,,3 | B,,3 | G,,3 | G,,F,,G,, | A,,3 | A,,3 | 
E,,3 | G,,3 | E,,3 | B,,3 | G,,3 | G,,F,,G,, | A,,3 | A,,3 | D,,3 |] 

(:musicend:)
(:music:)

